X:1
T:Title
%%score { ( 1 3 ) | 2 }
L:1/8
M:6/8
K:Ab
V:1 treble nm="Grand Piano"
V:3 treble 
V:2 bass 
V:1
 z3 z2[Q:1/4=90] [CE] | [CE][CA][CA] [CA][DB][CA] | A G2- G2 E | EBB BcB | %4
[M:5/8] [CA]-[CA]- [CA]3 |[M:1/8] [CE] |[M:3/4] Ec cc dc | cB- B3 E | EB BB cd |[M:5/8] c-c- c3 | %10
[M:1/8] [EA] |[M:3/4] [DF]6 | [CE]6 | [B,EG][B,EG] [B,EG][B,EG] [CEA][DEB] | %14
[M:5/8] [CEA]-[CEA]- [CEA]3 |[M:1/8] [A,E] |[M:3/4] [DF]6 | [CE]6 | %18
 [B,EG][B,EG] [B,EG][B,EG] [CEA][DEB] | [CEA]6 |] %20
V:2
 z3 z2 [A,,A,] | [A,,A,][A,,E,][A,,E,] [A,,E,][A,,E,][A,,E,] | [E,C] [E,B,]2- [E,B,]2 [E,G,B,] | %3
 [E,G,][E,G,D][E,G,D] [E,G,D][E,A,E][E,D] |[M:5/8] [A,,E,]-[A,,E,]- [A,,E,]3 |[M:1/8] [A,,A,] | %6
[M:3/4][K:treble] [A,C][A,E] [A,E][A,E] [A,F][K:bass][A,E] | [E,A,E][E,G,E]- [E,G,E]3 [E,G,] | %8
 [E,G,][E,G,E] [E,G,E][E,G,E] [E,A,E][E,B,E] |[M:5/8] [A,E]-[A,E]- [A,E]3 |[M:1/8] [C,A,] | %11
[M:3/4] [D,A,]2 D, D,2 F, | A,2 A,, A,,2 A,, | E,E, E,E, E,E, |[M:5/8] A,,-A,,- A,,3 |[M:1/8] C, | %16
[M:3/4] D,2 D, D,2 F, | A,2 A,, A,,2 A,, | E,E, E,E, E,E, | A,,6 |] %20
V:3
 x6 | x6 | x6 | x6 |[M:5/8] x5 |[M:1/8] x |[M:3/4] x6 | x6 | x6 |[M:5/8] x5 |[M:1/8] x | %11
[M:3/4] z2 A, A,2 [A,DA] | z2 A, A,2 [CEA] | x6 |[M:5/8] x5 |[M:1/8] x |[M:3/4] A,2 A, A,2 [A,DA] | %17
 z2 A, A,2 [CEA] | x6 | x6 |] %20

